X: 4
T: Strike The Gay Harp
R: jig
M: 6/8
L: 1/8
K: Dmaj
A|d.B.B cAA| "tr"BAG "tr"FED| dBB cAA| dAF EFA|\
(de)f (Bc)d| ABG FEF|
D>ED DFA| AFE (EF)A::\
d3 f3| a2b afd| d2f afa| bge ecA|
d2f a(f/g/a/).f/| (bg/a/b/)g/ a2g| fed dfe| dAF EFA::\
(df).e (df).e| (dA).G (FE).D|
(df).e (df).e| (dA).F (EF).A|\
(de).f (Bc).d| ABG FEF| DED DFA| AFE EFA:|


Tune 1216	Setting 29703

